images/regime_icon3.svg

<svg width="14" height="15" viewBox="0 0 14 15" fill="none" xmlns="http://www.w3.org/2000/svg">
<g opacity="0.7">
<path d="M3.31579 0C2.09753 0 1.10526 0.992267 1.10526 2.21053V7.92105H1.84211V2.21053C1.84211 1.38773 2.493 0.736842 3.31579 0.736842C4.01002 0.736842 4.58167 1.20307 4.74342 1.84211H5.49178C5.31481 0.799459 4.4078 0 3.31579 0ZM5.15789 2.21053C4.34147 2.21053 3.68421 2.86779 3.68421 3.68421H6.63158C6.63158 2.86779 5.97432 2.21053 5.15789 2.21053ZM4.05263 4.42105C3.84915 4.42105 3.68421 4.586 3.68421 4.78947V5.1579C3.68421 5.36137 3.84915 5.52632 4.05263 5.52632C4.25611 5.52632 4.42105 5.36137 4.42105 5.1579V4.78947C4.42105 4.586 4.25611 4.42105 4.05263 4.42105ZM6.26316 4.42105C6.05968 4.42105 5.89474 4.586 5.89474 4.78947V5.1579C5.89474 5.36137 6.05968 5.52632 6.26316 5.52632C6.46664 5.52632 6.63158 5.36137 6.63158 5.1579V4.78947C6.63158 4.586 6.46664 4.42105 6.26316 4.42105ZM5.15789 5.71053C4.95442 5.71053 4.78947 5.87549 4.78947 6.07895V6.44737C4.78947 6.65085 4.95442 6.81579 5.15789 6.81579C5.36137 6.81579 5.52632 6.65085 5.52632 6.44737V6.07895C5.52632 5.87549 5.36137 5.71053 5.15789 5.71053ZM0 8.28947C0 10.8408 2.05395 12.8947 4.60526 12.8947H9.39474C11.9461 12.8947 14 10.8408 14 8.28947H0ZM3.73026 13.2632C3.8731 13.8995 4.37112 14.3684 4.97368 14.3684H9.02632C9.62888 14.3684 10.1269 13.8995 10.2697 13.2632H3.73026Z" fill="#030A1B"/>
</g>
</svg>

<svg width="14" height="15" fill="none" xmlns="http://www.w3.org/2000/svg"><path d="M3.316 0c-1.218 0-2.21.992-2.21 2.21v5.711h.736v-5.71c0-.823.651-1.474 1.474-1.474.694 0 1.266.466 1.427 1.105h.749A2.213 2.213 0 003.316 0zm1.842 2.21a1.47 1.47 0 00-1.474 1.474h2.948a1.47 1.47 0 00-1.474-1.473zM4.053 4.422a.368.368 0 00-.369.368v.369a.368.368 0 10.737 0V4.79a.368.368 0 00-.368-.368zm2.21 0a.368.368 0 00-.368.368v.369a.368.368 0 10.737 0V4.79a.368.368 0 00-.369-.368zm-1.105 1.29a.368.368 0 00-.369.368v.368a.368.368 0 10.737 0V6.08a.368.368 0 00-.368-.368zM0 8.289a4.595 4.595 0 004.605 4.606h4.79A4.595 4.595 0 0014 8.289H0zm3.73 4.974c.143.636.641 1.105 1.244 1.105h4.052c.603 0 1.1-.469 1.244-1.105H3.73z" fill="#030A1B" opacity=".7"/></svg>
